Gurmukhi/0A06.svg

<svg enable-background="new 0 0 336 592" viewBox="0 0 336 592" xmlns="http://www.w3.org/2000/svg"><path d="m337 216.536804c-8.996033.524582-17.992065.591263-26.988129.645615-6.681457.040359-6.685791.033218-6.686462 6.505432-.00351 33.662704.000946 67.325394-.010712 100.988083-.002716 7.780243-1.496643 8.649841-8.512054 5.068878-4.154053-2.120361-8.22229-4.451721-12.513642-6.247223-3.675506-1.537872-4.715271-3.951782-4.700866-7.762329.116607-30.829285-.037964-61.659851.167877-92.488159.032593-4.885681-1.488525-6.294571-6.243866-6.166229-11.324036.305603-22.67012.380539-33.989532.008346-5.260407-.172973-6.322602 1.723251-6.307053 6.614838.168503 52.99324.111511 105.987198.112305 158.980942.000015 1.832763.105941 3.681304-.091706 5.494781-.350418 3.215179-2.222519 4.513886-5.203338 3.097443-6.015717-2.858551-11.934037-5.922974-17.878098-8.931031-3.03981-1.538269-2.488449-4.428039-2.490112-7.039947-.019715-31.162994-.001007-62.326019-.049545-93.488922-.002976-1.910309.619155-3.972199-.824082-5.97934-3.333069.780548-5.844452 3.028168-8.51477 4.869751-13.045868 8.996948-25.048722 19.285614-36.810593 29.876496-2.209473 1.989501-2.465286 4.579803-3.144287 7.120758-4.17099 15.608459-10.073807 30.324005-21.970093 41.867187-1.663208 1.613831-3.47969 3.141296-5.440781 4.36264-5.192565 3.233765-10.701538 3.787812-16.063438.588715-5.011642-2.990143-7.674973-10.149017-6.677933-16.161163 2.337509-14.095063 9.705605-25.663941 18.299538-36.600586 2.461624-3.13266 5.139328-6.1232 7.953537-8.943817 3.292969-3.300446 2.097076-7.551422 2.713425-11.371582 1.953064-12.105072-.884064-41.826279-4.91594-53.204071-8.176788 4.973648-15.17752 11.325409-22.125068 17.65036-6.644814 6.049347-12.776009 12.662353-19.143998 19.01651-1.811218 1.807281-3.165832 3.832733-3.543296 6.437469-2.156311 14.879913-8.536499 27.866974-17.774605 39.569275-2.306343 2.921509-5.152432 5.220276-8.364269 7.038483-10.801217 6.114654-22.380894-.443177-22.509121-12.891693-.08886-8.626526 3.652687-16.164063 7.833133-23.393464 4.000954-6.918914 8.364449-13.741699 14.173218-19.233856 5.579739-5.275604 6.84792-11.327331 5.908772-18.469894-1.457959-11.088135-3.965863-21.913269-7.364922-32.56311-1.050125-3.290238-2.981365-4.331376-6.28606-4.260865-7.828823.167053-15.66697-.079971-23.494488.115326-3.432194.085633-5.629131-.743484-6.693287-4.323746-1.134239-3.81604-2.819691-7.465698-4.198328-11.212356-1.416486-3.849487.181097-5.881897 4.084459-5.903442 13.664349-.075486 27.329674.027038 40.994053-.046036 2.996903-.016037 3.895272 1.982666 4.910408 4.137909 6.476471 13.750198 11.065163 28.14447 14.793038 42.84581.510032 2.011337.424286 4.308059 2.450531 6.328643 7.590873-6.516037 15.082512-13.055206 22.694481-19.451187 7.907859-6.644592 16.140998-12.863968 24.661758-18.719848 3.543228-2.435105 5.547974-2.471787 7.419891 1.93425 6.343506 14.930999 10.677048 30.427444 13.638535 46.326309 1.513885 8.127411 2.703186 16.315338 4.208435 25.509613 4.904037-3.953705 9.235428-7.384674 13.500259-10.896485 9.65979-7.954315 19.850983-15.181976 30.442322-21.813675 3.779053-2.36621 5.461426-5.002624 5.335404-9.65837-.347062-12.822419-.121445-25.660401-.117768-38.492219.002289-8.018981.006027-8.023406 7.791565-8.023971 36.995636-.002686 73.992584.154617 110.985657-.154236 6.382507-.053284 10.604492 1.28656 12.330749 8.101456.238892 4.279281.238892 8.303818.238892 12.791534z"/></svg>

<svg version="1.1" id="Layer_1" xmlns="http://www.w3.org/2000/svg" xmlns:xlink="http://www.w3.org/1999/xlink" x="0px" y="0px"
	 width="100%" viewBox="0 0 336 592" enable-background="new 0 0 336 592" xml:space="preserve">
<path fill="#000000" opacity="1.000000" stroke="none" 
	d="
M337.000000,216.536804 
	C328.003967,217.061386 319.007935,217.128067 310.011871,217.182419 
	C303.330414,217.222778 303.326080,217.215637 303.325409,223.687851 
	C303.321899,257.350555 303.326355,291.013245 303.314697,324.675934 
	C303.311981,332.456177 301.818054,333.325775 294.802643,329.744812 
	C290.648590,327.624451 286.580353,325.293091 282.289001,323.497589 
	C278.613495,321.959717 277.573730,319.545807 277.588135,315.735260 
	C277.704742,284.905975 277.550171,254.075409 277.756012,223.247101 
	C277.788605,218.361420 276.267487,216.952530 271.512146,217.080872 
	C260.188110,217.386475 248.842026,217.461411 237.522614,217.089218 
	C232.262207,216.916245 231.200012,218.812469 231.215561,223.704056 
	C231.384064,276.697296 231.327072,329.691254 231.327866,382.684998 
	C231.327881,384.517761 231.433807,386.366302 231.236160,388.179779 
	C230.885742,391.394958 229.013641,392.693665 226.032822,391.277222 
	C220.017105,388.418671 214.098785,385.354248 208.154724,382.346191 
	C205.114914,380.807922 205.666275,377.918152 205.664612,375.306244 
	C205.644897,344.143250 205.663605,312.980225 205.615067,281.817322 
	C205.612091,279.907013 206.234222,277.845123 204.790985,275.837982 
	C201.457916,276.618530 198.946533,278.866150 196.276215,280.707733 
	C183.230347,289.704681 171.227493,299.993347 159.465622,310.584229 
	C157.256149,312.573730 157.000336,315.164032 156.321335,317.704987 
	C152.150345,333.313446 146.247528,348.028992 134.351242,359.572174 
	C132.688034,361.186005 130.871552,362.713470 128.910461,363.934814 
	C123.717896,367.168579 118.208923,367.722626 112.847023,364.523529 
	C107.835381,361.533386 105.172050,354.374512 106.169090,348.362366 
	C108.506599,334.267303 115.874695,322.698425 124.468628,311.761780 
	C126.930252,308.629120 129.607956,305.638580 132.422165,302.817963 
	C135.715134,299.517517 134.519241,295.266541 135.135590,291.446381 
	C137.088654,279.341309 134.251526,249.620102 130.219650,238.242310 
	C122.042862,243.215958 115.042130,249.567719 108.094582,255.892670 
	C101.449768,261.942017 95.318573,268.555023 88.950584,274.909180 
	C87.139366,276.716461 85.784752,278.741913 85.407288,281.346649 
	C83.250977,296.226562 76.870789,309.213623 67.632683,320.915924 
	C65.326340,323.837433 62.480251,326.136200 59.268414,327.954407 
	C48.467197,334.069061 36.887520,327.511230 36.759293,315.062714 
	C36.670433,306.436188 40.411980,298.898651 44.592426,291.669250 
	C48.593380,284.750336 52.956875,277.927551 58.765644,272.435394 
	C64.345383,267.159790 65.613564,261.108063 64.674416,253.965500 
	C63.216457,242.877365 60.708553,232.052231 57.309494,221.402390 
	C56.259369,218.112152 54.328129,217.071014 51.023434,217.141525 
	C43.194611,217.308578 35.356464,217.061554 27.528946,217.256851 
	C24.096752,217.342484 21.899815,216.513367 20.835659,212.933105 
	C19.701420,209.117065 18.015968,205.467407 16.637331,201.720749 
	C15.220845,197.871262 16.818428,195.838852 20.721790,195.817307 
	C34.386139,195.741821 48.051464,195.844345 61.715843,195.771271 
	C64.712746,195.755234 65.611115,197.753937 66.626251,199.909180 
	C73.102722,213.659378 77.691414,228.053650 81.419289,242.754990 
	C81.929321,244.766327 81.843575,247.063049 83.869820,249.083633 
	C91.460693,242.567596 98.952332,236.028427 106.564301,229.632446 
	C114.472160,222.987854 122.705299,216.768478 131.226059,210.912598 
	C134.769287,208.477493 136.774033,208.440811 138.645950,212.846848 
	C144.989456,227.777847 149.322998,243.274292 152.284485,259.173157 
	C153.798370,267.300568 154.987671,275.488495 156.492920,284.682770 
	C161.396957,280.729065 165.728348,277.298096 169.993179,273.786285 
	C179.652969,265.831970 189.844162,258.604309 200.435501,251.972610 
	C204.214554,249.606400 205.896927,246.969986 205.770905,242.314240 
	C205.423843,229.491821 205.649460,216.653839 205.653137,203.822021 
	C205.655426,195.803040 205.659164,195.798615 213.444702,195.798050 
	C250.440338,195.795364 287.437286,195.952667 324.430359,195.643814 
	C330.812866,195.590530 335.034851,196.930374 336.761108,203.745270 
	C337.000000,208.024551 337.000000,212.049088 337.000000,216.536804 
z"/>
</svg>
